map_marker_monochrome/openmoji_popcorn.svg

<svg xmlns="http://www.w3.org/2000/svg" width="24" height="24" viewBox="0 0 24 24"> <g transform="scale(0.333333333)">  <g id="line">
    <path fill="none" stroke="#000000" stroke-linecap="round" stroke-linejoin="round" stroke-miterlimit="10" stroke-width="2" d="M53.0029,24.8252C54.167,24.4131,55.001,23.3037,55,21.999c-0.001-1.4336-1.0107-2.6308-2.3574-2.9258 c0.5947-1.1328,0.4306-2.5586-0.5205-3.5078c-0.8487-0.8496-2.0791-1.0732-3.1397-0.6914 c-0.0849-0.9385-0.6035-1.8232-1.4804-2.3291c-0.7989-0.4609-1.7178-0.5-2.5225-0.207c-0.0859-1.2432-0.9326-2.3516-2.2002-2.6904 c-0.9639-0.2588-1.9395-0.0098-2.6602,0.5732C39.7725,10.0811,39.3965,10,39,10c-0.2432,0-0.4766,0.0371-0.7031,0.0918 C37.7461,9.4297,36.9277,9,36,9c-0.9277,0-1.7471,0.4297-2.2969,1.0918C33.4766,10.0371,33.2432,10,33,10 c-0.3955,0-0.7705,0.0811-1.1162,0.2197c-0.7207-0.582-1.6963-0.831-2.6592-0.5722c-1.4824,0.3974-2.3916,1.8388-2.1797,3.3213 c-0.9385-0.8829-2.3711-1.1006-3.5439-0.4239c-0.8203,0.4737-1.3194,1.2774-1.4531,2.1465 c-0.7842-0.0137-1.5713,0.2754-2.169,0.8731c-0.9512,0.9511-1.1172,2.3779-0.5244,3.5087C18.0088,19.3701,17,20.5654,17.001,21.999 c0.001,1.3106,0.8408,2.4239,2.0127,2.833"/>
    <polygon fill="none" stroke="#000000" stroke-linecap="round" stroke-linejoin="round" stroke-miterlimit="10" stroke-width="2" points="22,27 50,27 47,60 25,60"/>
    <path fill="none" stroke="#000000" stroke-linecap="round" stroke-linejoin="round" stroke-miterlimit="10" stroke-width="2" d="M26,21c0-1.6572,1.3438-3,3-3"/>
    <path fill="none" stroke="#000000" stroke-linecap="round" stroke-linejoin="round" stroke-miterlimit="10" stroke-width="2" d="M34,18c0-1.6572,1.3428-3,3-3"/>
  </g></g></svg>

<svg xmlns="http://www.w3.org/2000/svg" width="24" height="24" viewBox="0 0 24 24"> <g transform="translate(2.943622415094339 0.0) scale(0.4528301886792453)">
  
  <g
     id="line"
     transform="translate(-16.000999,-8)">
    <path
       fill="none"
       stroke="#000"
       stroke-linecap="round"
       stroke-linejoin="round"
       stroke-miterlimit="10"
       stroke-width="2"
       d="M 53.0029,24.8252 C 54.167,24.4131 55.001,23.3037 55,21.999 54.999,20.5654 53.9893,19.3682 52.6426,19.0732 53.2373,17.9404 53.0732,16.5146 52.1221,15.5654 51.2734,14.7158 50.043,14.4922 48.9824,14.874 48.8975,13.9355 48.3789,13.0508 47.502,12.5449 46.7031,12.084 45.7842,12.0449 44.9795,12.3379 44.8936,11.0947 44.0469,9.9863 42.7793,9.6475 41.8154,9.3887 40.8398,9.6377 40.1191,10.2207 39.7725,10.0811 39.3965,10 39,10 38.7568,10 38.5234,10.0371 38.2969,10.0918 37.7461,9.4297 36.9277,9 36,9 35.0723,9 34.2529,9.4297 33.7031,10.0918 33.4766,10.0371 33.2432,10 33,10 c -0.3955,0 -0.7705,0.0811 -1.1162,0.2197 -0.7207,-0.582 -1.6963,-0.831 -2.6592,-0.5722 -1.4824,0.3974 -2.3916,1.8388 -2.1797,3.3213 -0.9385,-0.8829 -2.3711,-1.1006 -3.5439,-0.4239 -0.8203,0.4737 -1.3194,1.2774 -1.4531,2.1465 -0.7842,-0.0137 -1.5713,0.2754 -2.169,0.8731 -0.9512,0.9511 -1.1172,2.3779 -0.5244,3.5087 -1.3457,0.2969 -2.3545,1.4922 -2.3535,2.9258 10e-4,1.3106 0.8408,2.4239 2.0127,2.833"
       id="path2" />
    <polygon
       fill="none"
       stroke="#000"
       stroke-linecap="round"
       stroke-linejoin="round"
       stroke-miterlimit="10"
       stroke-width="2"
       points="47,60 25,60 22,27 50,27 "
       id="polygon4" />
    <path
       fill="none"
       stroke="#000"
       stroke-linecap="round"
       stroke-linejoin="round"
       stroke-miterlimit="10"
       stroke-width="2"
       d="m 26,21 c 0,-1.6572 1.3438,-3 3,-3"
       id="path6" />
    <path
       fill="none"
       stroke="#000"
       stroke-linecap="round"
       stroke-linejoin="round"
       stroke-miterlimit="10"
       stroke-width="2"
       d="m 34,18 c 0,-1.6572 1.3428,-3 3,-3"
       id="path8" />
  </g>
</g></svg>
